icons/solid/collection.svg

<svg width="24" height="24" viewBox="0 0 24 24" fill="none" xmlns="http://www.w3.org/2000/svg">
<path fill-rule="evenodd" clip-rule="evenodd" d="M8 21C6.89543 21 6 20.1046 6 19H18C18 20.1046 17.1046 21 16 21H8ZM4 16C4 17.1046 4.89543 18 6 18H18C19.1046 18 20 17.1046 20 16H4ZM4 15C2.89543 15 2 14.1046 2 13V5C2 3.89543 2.89543 3 4 3H20C21.1046 3 22 3.89543 22 5V13C22 14.1046 21.1046 15 20 15H4Z" fill="currentColor"/>
</svg>

<svg fill="none" xmlns="http://www.w3.org/2000/svg" viewBox="0 0 24 24"><path fill-rule="evenodd" clip-rule="evenodd" d="M8 21a2 2 0 01-2-2h12a2 2 0 01-2 2H8zm-4-5a2 2 0 002 2h12a2 2 0 002-2H4zm0-1a2 2 0 01-2-2V5a2 2 0 012-2h16a2 2 0 012 2v8a2 2 0 01-2 2H4z" fill="currentColor"/></svg>
